X:1
T:Pixham, LM
T:Pixham, LM
T:Horatio William Parker, 1901
T:Public Domain Courtesy of the Cyber Hymnal™
C:Horatio William Parker, 1901
Z:Public Domain
Z:Courtesy of the Cyber Hymnal™
%%score ( 1 2 ) ( 3 4 )
L:1/8
M:3/4
K:Eb
V:1 treble 
V:2 treble 
V:3 bass 
V:4 bass 
V:1
 [EG]2 [EA]2 [EB]2 | B4 [FB]2 | (e2 d2) [Gc]2 | [FB]4 [DA]2 | [EG]4 [EG]2 | G2 d2 [Gc]2 | %6
 [GB]4 [^F=A]2 | G4 [DG]2 | ([DF]2 [EG]2) [FA]2 | [GB]4 [GB]2 | (_d2 c2) [GB]2 | [Ac]4 E2 | %12
 [Cc]4 [CG]2 | (A2 G2) [CF]2 | E4 [DF]2 | E6 |] %16
V:2
 x6 | E2 D2 x2 | E4 x2 | x6 | x6 | D4 x2 | x6 | G4 x2 | x6 | x6 | G4 x2 | x4 E2 | x6 | C4 x2 | %14
 B,2 C2 x2 | E6 |] %16
V:3
 [E,B,]2 [E,A,]2 [E,G,]2 | [F,A,]4 [A,B,]2 | [G,B,]4 [E,B,]2 | [D,B,]4 [B,,B,]2 | B,4 [C,=A,]2 | %5
 [B,,B,]4 [C,E]2 | (E2 D2) [D,C]2 | [G,B,]4 [G,B,]2 | B,4 [F,B,]2 | [E,B,]4 [E,B,]2 | %10
 (B,2 E2) [E,_D]2 | [A,C]4 E,2 | [A,,E,]4 [C,=E,]2 | ([F,,F,]2 [G,,B,]2) [A,,A,]2 | %14
 [B,,G,]4 [B,,A,]2 | [E,G,]6 |] %16
V:4
 x6 | x6 | x6 | x6 | (E,2 D,2) x2 | x6 | D,4 x2 | x6 | (A,2 G,2) x2 | x6 | E,4 x2 | x4 E,2 | x6 | %13
 x6 | x6 | x6 |] %16

